X: 6
T: The Rainy Day
R: reel
M: 4/4
L: 1/8
K: Ador
AAAG AGAB|cedB cBAc|BGGG BdcA|B/c/def gdBG|AAAG AGAB|c2AB cdef|g2af gedB|GBdB BAA2:|eaag e2ag|edef gafg|agfa g2dB|GAB/c/d edBd |e2ag e2ag|edef g3f|gedB GABd|gedB BAA2:|


Tune 1807	Setting 15246

